static/partnership.svg

<svg xmlns="http://www.w3.org/2000/svg" width="800" height="800" fill="currentColor" viewBox="0 0 32 32"><title>partnership</title><path d="M8 9a4 4 0 1 1 4-4 4 4 0 0 1-4 4m0-6a2 2 0 1 0 2 2 2 2 0 0 0-2-2M24 9a4 4 0 1 1 4-4 4 4 0 0 1-4 4m0-6a2 2 0 1 0 2 2 2 2 0 0 0-2-2M26 30h-4a2 2 0 0 1-2-2v-7h2v7h4v-9h2v-6a1 1 0 0 0-1-1h-6.42L16 20l-4.58-8H5a1 1 0 0 0-1 1v6h2v9h4v-7h2v7a2 2 0 0 1-2 2H6a2 2 0 0 1-2-2v-7a2 2 0 0 1-2-2v-6a3 3 0 0 1 3-3h7.58L16 16l3.42-6H27a3 3 0 0 1 3 3v6a2 2 0 0 1-2 2v7a2 2 0 0 1-2 2"/><path d="M0 0h32v32H0z" data-name="&lt;Transparent Rectangle&gt;" style="fill:none"/></svg>

<?xml version="1.0" encoding="utf-8"?><!-- Uploaded to: SVG Repo, www.svgrepo.com, Generator: SVG Repo Mixer Tools -->
<svg fill="#000000" width="800px" height="800px" viewBox="0 0 32 32" id="icon" xmlns="http://www.w3.org/2000/svg"><defs><style>.cls-1{fill:none;}</style></defs><title>partnership</title><path d="M8,9a4,4,0,1,1,4-4A4,4,0,0,1,8,9ZM8,3a2,2,0,1,0,2,2A2,2,0,0,0,8,3Z" transform="translate(0)"/><path d="M24,9a4,4,0,1,1,4-4A4,4,0,0,1,24,9Zm0-6a2,2,0,1,0,2,2A2,2,0,0,0,24,3Z" transform="translate(0)"/><path d="M26,30H22a2,2,0,0,1-2-2V21h2v7h4V19h2V13a1,1,0,0,0-1-1H20.58L16,20l-4.58-8H5a1,1,0,0,0-1,1v6H6v9h4V21h2v7a2,2,0,0,1-2,2H6a2,2,0,0,1-2-2V21a2,2,0,0,1-2-2V13a3,3,0,0,1,3-3h7.58L16,16l3.42-6H27a3,3,0,0,1,3,3v6a2,2,0,0,1-2,2v7A2,2,0,0,1,26,30Z" transform="translate(0)"/><rect id="_Transparent_Rectangle_" data-name="&lt;Transparent Rectangle&gt;" class="cls-1" width="32" height="32"/></svg>
